Catalina-dark/actions/22/layer-new.svg

<svg xmlns="http://www.w3.org/2000/svg" viewBox="0 0 22 22">
  <defs id="defs3051">
    <style type="text/css" id="current-color-scheme">
      .ColorScheme-Text {
        color:#f2f2f2
      }
      </style>
  </defs>
 <path 
     style="fill:currentColor;fill-opacity:1;stroke:none"      
	 class="ColorScheme-Text"
        d="M 11 3 L 2.5664062 7.2167969 L 11 11.433594 L 19.433594 7.2167969 L 11 3 z M 4.9160156 9.8027344 L 2.5664062 10.978516 L 11 15.195312 L 19.433594 10.978516 L 17.083984 9.8027344 L 11 12.84375 L 4.9160156 9.8027344 z M 4.9160156 13.328125 L 2.0058594 14.783203 L 11 19.279297 L 19.992188 14.783203 L 17.082031 13.328125 L 11 16.369141 L 4.9160156 13.328125 z M 4.9160156 13.886719 L 11 16.929688 L 11.111328 16.873047 L 17.082031 13.886719 L 18.875 14.783203 L 11 18.720703 L 3.125 14.783203 L 4.9160156 13.886719 z "
     />
</svg>

<svg viewBox="0 0 22 22" xmlns="http://www.w3.org/2000/svg">
<defs>
<style id="current-color-scheme" type="text/css">.ColorScheme-Text {
        color:#dedede
      }</style>
</defs>
<path class="ColorScheme-Text" d="m11 3-8.4336 4.2168 8.4336 4.2168 8.4336-4.2168-8.4336-4.2168zm-6.084 6.8027-2.3496 1.1758 8.4336 4.2168 8.4336-4.2168-2.3496-1.1758-6.084 3.041-6.084-3.041zm0 3.5254-2.9102 1.4551 8.9941 4.4961 8.9922-4.4961-2.9102-1.4551-6.082 3.041-6.084-3.041zm0 0.55859 6.084 3.043 0.11133-0.056641 5.9707-2.9863 1.793 0.89648-7.875 3.9375-7.875-3.9375 1.791-0.89648z" fill="currentColor"/>
</svg>
